Obsidian/actions/22s/im-google.svg

<svg height="22" viewBox="0 0 22 22" width="22" xmlns="http://www.w3.org/2000/svg"><path d="m8.7792969 1c-.49361 0-1.0271156.0629238-1.6035157.1835938-.5651799.12304-1.1076468.3981518-1.6230468.8261718-.38684.34639-.6729344.7380144-.8652344 1.1777344-.19231.42803-.2910156.8590894-.2910156 1.2871094 0 .35513.0661987.7092931.1992187 1.0644531.1308.34406.3229419.6487619.5761719.9199219.25324.26883.5660231.4892962.9394531.6601562.37118.15919.7991269.2402344 1.2792969.2402344h.2890625c.0961-.014.1929125-.0273625.2890625-.0390625-.0481.10905-.0901131.2206512-.1269531.3320313-.0352.0979999-.0527344.2255656-.0527344.3847656 0 .28282.0531294.5189137.1621094.7148437.12019.18427.2461431.3623432.3769531.5332031-.20293.014-.4434331.0319875-.7207031.0546876-.27728.0250999-.5700456.0696193-.8847657.1308593-.3125.0612-.630015.1403113-.953125.2382813-.3125.10963-.6075056.251015-.8847656.4218746-.52884.31898-.8894443.686576-1.0839844 1.103516-.2029299.42802-.3046874.808652-.3046874 1.138672 0 .34172.0775618.667676.2324218.972656.15708.31898.3972963.6.7226563.84375.3231.24725.7287543.444064 1.2089843.589844.4930601.14812 1.0621907.220703 1.7128907.220703.76864 0 1.4492625-.10549 2.0390625-.3125.6009396-.19535 1.1005466-.460956 1.4980466-.791016.39523-.31898.695231-.684622.900391-1.101562.20292-.41461.306641-.837605.306641-1.265625 0-.31897-.041994-.599623-.126954-.845703-.0827-.24376-.19952-.464226-.34375-.660156-.13081-.1959405-.294018-.3818849-.486328-.5527349-.17888-.17086-.366284-.3428119-.558594-.5136719l-.648437-.515625c-.0961-.0845-.1995837-.1815887-.3085938-.2929687-.1067699-.12071-.1621093-.2871206-.1621093-.4941406 0-.20993.0553194-.381505.1621093-.515625.1090101-.13413.22356-.2640556.34375-.3847657.1922998-.14812.3797138-.3017475.5585938-.4609374.18112-.1708601.342098-.3548513.486328-.5507813.14423-.20702.26102-.4400956.34375-.6972656.0855-.25716.126953-.5567175.126953-.8984375 0-.34406-.048311-.650715-.144531-.921875-.0962-.26883-.2107-.4993725-.34375-.6953125-.1308-.2076-.269842-.381505-.414063-.515625-.14422-.14579-.272126-.2613563-.378906-.3476563v-.0058594h1.119141l1.154297-.6601562zm-1.1347657.6074219h.0019532c.3712 0 .6953862.1155662.9726562.3476562.28845.22101.5284031.5016532.7207032.8457031.19175.34172.3354906.7096925.4316406 1.1015626.0962.3912799.1445312.7519712.1445312 1.0820312 0 .17261-.0241656.3873713-.0722656.6445312-.048.2571701-.1759763.4902457-.3789062.6972657-.14423.14812-.3316338.2692175-.5585938.3671875-.21475.0975-.4360225.1479575-.6640625.1484375h-.0039063c-.38321-.00059-.7182393-.1120382-1.0058593-.3300781-.27727-.23209-.510825-.5156432-.703125-.8457032-.18112-.33006-.3198657-.6862562-.4160157-1.0664062-.0855-.38079-.1269531-.7223938-.1269531-1.0273438 0-.24551.0242656-.4847069.0722657-.7167968.0586999-.23267.1674156-.4466482.3222656-.6425782.14423-.18486.3313469-.3300262.5605468-.4414062.22697-.10905.462745-.1640625.703125-.1640625zm.6347657 8.1894531h.4667969c.0609999 0 .1251556.0083313.1972656.0195312.33653.2460798.6315356.4642168.8847656.6601558.25324.195931.458154.387793.615234.570313.15486.18428.269687.368261.341797.550781.0833.19594.126953.410488.126953.642578h.001953c0 .57614-.229386 1.047263-.685546 1.414063-.4455304.38079-1.1016504.570312-1.9687504.570312-.97381 0-1.7498718-.20805-2.3261718-.625-.56573-.41694-.8476563-.954494-.8476563-1.615234 0-.33239.0595175-.605162.1796875-.826172.1336-.22101.2829019-.404991.4511719-.550781.16771-.14812.3375893-.26506.5058593-.34961.18111-.075199.3179026-.129275.4140626-.166015.19173-.0612.3905431-.1162426.5957031-.1640626.20293-.0385.3950519-.06865.5761719-.09375.1811299-.0117.3376531-.0254094.4707031-.0371094z" fill="#bebebe" transform="translate(3 3)"/></svg>

<svg xmlns="http://www.w3.org/2000/svg" width="22" height="22" viewBox="0 0 22 22">
 <defs>
  <style id="current-color-scheme" type="text/css">
   .ColorScheme-Text { color:#bebebe; } .ColorScheme-Highlight { color:#4285f4; }
  </style>
 </defs>
 <path style="fill:currentColor" class="ColorScheme-Text" d="M 8.7792969 1 C 8.2856869 1 7.7521813 1.0629238 7.1757812 1.1835938 C 6.6106013 1.3066338 6.0681344 1.5817456 5.5527344 2.0097656 C 5.1658944 2.3561556 4.8798 2.74778 4.6875 3.1875 C 4.49519 3.61553 4.3964844 4.0465894 4.3964844 4.4746094 C 4.3964844 4.8297394 4.4626831 5.1839025 4.5957031 5.5390625 C 4.7265031 5.8831225 4.918645 6.1878244 5.171875 6.4589844 C 5.425115 6.7278144 5.7378981 6.9482806 6.1113281 7.1191406 C 6.4825081 7.2783306 6.910455 7.359375 7.390625 7.359375 L 7.6796875 7.359375 C 7.7757875 7.345375 7.8726 7.3320125 7.96875 7.3203125 C 7.92065 7.4293625 7.8786369 7.5409637 7.8417969 7.6523438 C 7.8065969 7.7503437 7.7890625 7.8779094 7.7890625 8.0371094 C 7.7890625 8.3199294 7.8421919 8.5560231 7.9511719 8.7519531 C 8.0713619 8.9362231 8.197315 9.1142963 8.328125 9.2851562 C 8.125195 9.2991562 7.8846919 9.3171437 7.6074219 9.3398438 C 7.3301419 9.3649437 7.0373763 9.4094631 6.7226562 9.4707031 C 6.4101562 9.5319031 6.0926412 9.6110144 5.7695312 9.7089844 C 5.4570312 9.8186144 5.1620256 9.9599994 4.8847656 10.130859 C 4.3559256 10.449839 3.9953213 10.817435 3.8007812 11.234375 C 3.5978513 11.662395 3.4960938 12.043027 3.4960938 12.373047 C 3.4960938 12.714767 3.5736556 13.040723 3.7285156 13.345703 C 3.8855956 13.664683 4.1258119 13.945703 4.4511719 14.189453 C 4.7742719 14.436703 5.1799262 14.633517 5.6601562 14.779297 C 6.1532163 14.927417 6.7223469 15 7.3730469 15 C 8.1416869 15 8.8223094 14.89451 9.4121094 14.6875 C 10.013049 14.49215 10.512656 14.226544 10.910156 13.896484 C 11.305386 13.577504 11.605387 13.211862 11.810547 12.794922 C 12.013467 12.380312 12.117188 11.957317 12.117188 11.529297 C 12.117188 11.210327 12.075194 10.929674 11.990234 10.683594 C 11.907534 10.439834 11.790714 10.219368 11.646484 10.023438 C 11.515674 9.8274975 11.352466 9.6415531 11.160156 9.4707031 C 10.981276 9.2998431 10.793872 9.1278912 10.601562 8.9570312 L 9.953125 8.4414062 C 9.857025 8.3569062 9.7535413 8.2598175 9.6445312 8.1484375 C 9.5377613 8.0277275 9.4824219 7.8613169 9.4824219 7.6542969 C 9.4824219 7.4443669 9.5377413 7.2727919 9.6445312 7.1386719 C 9.7535413 7.0045419 9.8680912 6.8746163 9.9882812 6.7539062 C 10.180581 6.6057862 10.367995 6.4521587 10.546875 6.2929688 C 10.727995 6.1221087 10.888973 5.9381175 11.033203 5.7421875 C 11.177433 5.5351675 11.294223 5.3020919 11.376953 5.0449219 C 11.462453 4.7877619 11.503906 4.4882044 11.503906 4.1464844 C 11.503906 3.8024244 11.455595 3.4957694 11.359375 3.2246094 C 11.263175 2.9557794 11.148675 2.7252369 11.015625 2.5292969 C 10.884825 2.3216969 10.745783 2.1477919 10.601562 2.0136719 C 10.457342 1.8678819 10.329436 1.7523156 10.222656 1.6660156 L 10.222656 1.6601562 L 11.341797 1.6601562 L 12.496094 1 L 8.7792969 1 z M 7.6445312 1.6074219 L 7.6464844 1.6074219 C 8.0176844 1.6074219 8.3418706 1.7229881 8.6191406 1.9550781 C 8.9075906 2.1760881 9.1475437 2.4567313 9.3398438 2.8007812 C 9.5315938 3.1425012 9.6753344 3.5104737 9.7714844 3.9023438 C 9.8676844 4.2936237 9.9160156 4.654315 9.9160156 4.984375 C 9.9160156 5.156985 9.89185 5.3717463 9.84375 5.6289062 C 9.79575 5.8860763 9.6677737 6.1191519 9.4648438 6.3261719 C 9.3206138 6.4742919 9.13321 6.5953894 8.90625 6.6933594 C 8.6915 6.7908594 8.4702275 6.8413169 8.2421875 6.8417969 L 8.2382812 6.8417969 C 7.8550712 6.8412069 7.5200419 6.7297587 7.2324219 6.5117188 C 6.9551519 6.2796288 6.7215969 5.9960756 6.5292969 5.6660156 C 6.3481769 5.3359556 6.2094312 4.9797594 6.1132812 4.5996094 C 6.0277812 4.2188194 5.9863281 3.8772156 5.9863281 3.5722656 C 5.9863281 3.3267556 6.0105937 3.0875587 6.0585938 2.8554688 C 6.1172937 2.6227988 6.2260094 2.4088206 6.3808594 2.2128906 C 6.5250894 2.0280306 6.7122063 1.8828644 6.9414062 1.7714844 C 7.1683762 1.6624344 7.4041512 1.6074219 7.6445312 1.6074219 z M 8.2792969 9.796875 L 8.7460938 9.796875 C 8.8070937 9.796875 8.8712494 9.8052063 8.9433594 9.8164062 C 9.2798894 10.062486 9.574895 10.280623 9.828125 10.476562 C 10.081365 10.672493 10.286279 10.864355 10.443359 11.046875 C 10.598219 11.231155 10.713046 11.415136 10.785156 11.597656 C 10.868456 11.793596 10.912109 12.008144 10.912109 12.240234 L 10.914062 12.240234 C 10.914062 12.816374 10.684676 13.287497 10.228516 13.654297 C 9.7829856 14.035087 9.1268656 14.224609 8.2597656 14.224609 C 7.2859556 14.224609 6.5098938 14.016559 5.9335938 13.599609 C 5.3678638 13.182669 5.0859375 12.645115 5.0859375 11.984375 C 5.0859375 11.651985 5.145455 11.379213 5.265625 11.158203 C 5.399225 10.937193 5.5485269 10.753212 5.7167969 10.607422 C 5.8845069 10.459302 6.0543862 10.342362 6.2226562 10.257812 C 6.4037662 10.182613 6.5405588 10.128537 6.6367188 10.091797 C 6.8284488 10.030597 7.0272619 9.9755544 7.2324219 9.9277344 C 7.4353519 9.8892344 7.6274738 9.8590844 7.8085938 9.8339844 C 7.9897237 9.8222844 8.1462469 9.808575 8.2792969 9.796875 z" transform="translate(3 3)"/>
</svg>
